X: 537
T: Ducks on the Pond
B: jims roots
M:C|
L:1/8
Q: 1/4=100
K:Ador
V:1 
"Am" [E4A,4] [e4A4] | edef "(C)"g4 | "G" B2 Bc BAGA | "(Em)"BABc BA G2|
"Am" [E4A,4] [e4A4] | edef "(C)"gaba | "G" g2e2d2B2 |[1"F"A3B "Am"A4:|[2 "Am"A3 B A2||
|:e2 | "Am" aebe a2g2 | edef "(C)"g2 g2-|"G"gfga bagf | "(Em)"edeg ag e2 |
"Am" aebe a2g2 | edef "(C)"g2 ba |"G" g2e2d2B2 |[1"F"A3B "Am"A2:|[2 "Am"A3B A4|]
% abcbook-tune_id 6298c25d7026e454bf6fca69


% abcbook-boost 0
% abcbook-tablature 
% abcbook-transpose 
% abcbook-lastupdated 1654178397738
% abcbook-soundfonts 
% abcbook-repeats 1


